**harm	**harte	**silbe	**rhyme	**timestamp	**phrase	**leadinstrument	**kern
*M4/4	*M4/4	*	*	*	*	*	*
*	*	*	*	*	*	*	*
*	*	*	*	*	*	*	*
*E:	*E:	*	*	*	*	*	*E:
*	*	*	*	*	*	*	*
*	*	*	*	*	*	*	*
1r;	N	.	.	.	.	r	1r;
=1	=1	=1	=1	=1	=1	=1	=1
*>Letter>A	*>Letter>A	*>Letter>A	*>Letter>A	*>Letter>A	*>Letter>A	*>Letter>A	*>Letter>A
*>Label>Intro	*>Label>Intro	*>Label>Intro	*>Label>Intro	*>Label>Intro	*>Label>Intro	*>Label>Intro	*>Label>Intro
1IV	A:maj	.	.	5.165	newline	guitar	1A 1cc# 1ee
=2	=2	=2	=2	=2	=2	=2	=2
1IV	A:maj	.	.	.	.	guitar	1A 1cc# 1ee
=3	=3	=3	=3	=3	=3	=3	=3
1V	B:maj	.	.	.	.	guitar	1B 1dd# 1ff#
=4	=4	=4	=4	=4	=4	=4	=4
1V	B:maj	.	.	.	.	guitar	1B 1dd# 1ff#
=5	=5	=5	=5	=5	=5	=5	=5
1I	E:maj	.	.	.	.	.	1E 1g# 1b
=6	=6	=6	=6	=6	=6	=6	=6
1I	E:maj	.	.	.	.	.	1E 1g# 1b
=7	=7	=7	=7	=7	=7	=7	=7
1I	E:maj	.	.	.	.	.	1E 1g# 1b
=8	=8	=8	=8	=8	=8	=8	=8
1I	E:maj	.	.	.	.	.	1E 1g# 1b
.	.	.	.	.	.	.	.
.	.	They	.	.	.	.	.
=9	=9	=9	=9	=9	=9	=9	=9
*>Letter>B	*>Letter>B	*>Letter>B	*>Letter>B	*>Letter>B	*>Letter>B	*>Letter>B	*>Letter>B
*>Label>Verse	*>Label>Verse	*>Label>Verse	*>Label>Verse	*>Label>Verse	*>Label>Verse	*>Label>Verse	*>Label>Verse
1IV	A:maj	paved	.	16.645	newline	voice	1A 1cc# 1ee
.	.	par-	.	.	.	.	.
.	.	-a-	.	.	.	.	.
.	.	-dise	.	.	.	.	.
.	.	and	.	.	.	.	.
.	.	they	.	.	.	.	.
=10	=10	=10	=10	=10	=10	=10	=10
1IV	A:maj	put	.	.	.	.	1A 1cc# 1ee
.	.	up	.	.	.	.	.
.	.	a	.	.	.	.	.
.	.	park-	.	.	.	.	.
.	.	_	.	.	.	.	.
.	.	-ing	.	.	.	.	.
.	.	lot	A	.	.	.	.
=11	=11	=11	=11	=11	=11	=11	=11
1I	E:maj	_	.	.	.	voice	1E 1g# 1b
.	.	.	.	.	.	.	.
=12	=12	=12	=12	=12	=12	=12	=12
1I	E:maj	.	.	.	.	voice	1E 1g# 1b
.	.	.	.	.	.	.	.
.	.	With	.	.	.	.	.
.	.	a	.	.	.	.	.
=13	=13	=13	=13	=13	=13	=13	=13
1IV	A:maj	pink	.	.	.	voice	1A 1cc# 1ee
.	.	_	.	.	.	.	.
.	.	ho-	.	.	.	.	.
.	.	-tel	.	.	.	.	.
.	.	.	.	.	.	.	.
.	.	a	.	.	.	.	.
=14	=14	=14	=14	=14	=14	=14	=14
1V	B:maj	bou-	.	.	.	voice	1B 1dd# 1ff#
.	.	-tique	.	.	.	.	.
.	.	and	.	.	.	.	.
.	.	a	.	.	.	.	.
.	.	_	.	.	.	.	.
.	.	swing-	.	.	.	.	.
=15	=15	=15	=15	=15	=15	=15	=15
1I	E:maj	_	.	.	.	voice	1E 1g# 1b
.	.	-ing	.	.	.	.	.
.	.	hot	.	.	.	.	.
.	.	_	.	.	.	.	.
.	.	spot	A	.	.	.	.
=16	=16	=16	=16	=16	=16	=16	=16
1I	E:maj	_	.	.	.	voice	1E 1g# 1b
.	.	.	.	.	.	.	.
=17	=17	=17	=17	=17	=17	=17	=17
*>Letter>C	*>Letter>C	*>Letter>C	*>Letter>C	*>Letter>C	*>Letter>C	*>Letter>C	*>Letter>C
*>Label>Chorus	*>Label>Chorus	*>Label>Chorus	*>Label>Chorus	*>Label>Chorus	*>Label>Chorus	*>Label>Chorus	*>Label>Chorus
1I	E:maj	.	.	28.225	newline	voice	1E 1g# 1b
.	.	Don't	B	.	.	.	.
.	.	it	.	.	.	.	.
.	.	al-	.	.	.	.	.
.	.	-ways	.	.	.	.	.
=18	=18	=18	=18	=18	=18	=18	=18
1I7	E:maj7	.	.	.	.	voice	1E 1g# 1b 1dd#
.	.	seem	.	.	.	.	.
.	.	to	.	.	.	.	.
.	.	go	B	.	.	.	.
.	.	_	.	.	.	.	.
=19	=19	=19	=19	=19	=19	=19	=19
1I	E:maj	.	.	.	.	voice	1E 1g# 1b
.	.	You	.	.	.	.	.
.	.	don't	.	.	.	.	.
.	.	know	.	.	.	.	.
.	.	what	.	.	.	.	.
.	.	you've	.	.	.	.	.
.	.	got	C	.	.	.	.
=20	=20	=20	=20	=20	=20	=20	=20
1I	E:maj	_	.	.	.	voice	1E 1g# 1b
.	.	till	.	.	.	.	.
.	.	it's	.	.	.	.	.
.	.	gone	C	.	.	.	.
.	.	_	.	.	.	.	.
.	.	.	.	.	.	.	.
.	.	They	.	.	.	.	.
=21	=21	=21	=21	=21	=21	=21	=21
1IV	A:maj	paved	.	.	.	voice	1A 1cc# 1ee
.	.	par-	.	.	.	.	.
.	.	-a-	.	.	.	.	.
.	.	-dise	.	.	.	.	.
.	.	and	.	.	.	.	.
.	.	they	.	.	.	.	.
=22	=22	=22	=22	=22	=22	=22	=22
1V	B:maj	.	.	.	.	voice	1B 1dd# 1ff#
.	.	put	.	.	.	.	.
.	.	up	.	.	.	.	.
.	.	a	.	.	.	.	.
.	.	park-	.	.	.	.	.
.	.	-ing	.	.	.	.	.
.	.	lot	C	.	.	.	.
=23	=23	=23	=23	=23	=23	=23	=23
1I	E:maj	_	.	.	.	voice	1E 1g# 1b
=24	=24	=24	=24	=24	=24	=24	=24
1I	E:maj	_	.	.	.	voice	1E 1g# 1b
.	.	.	.	.	.	.	.
=25	=25	=25	=25	=25	=25	=25	=25
1I	E:maj	.	.	.	.	keys	1E 1g# 1b
=26	=26	=26	=26	=26	=26	=26	=26
1Im7	E:7	.	.	.	.	keys	1E 1g# 1b 1dd#
=27	=27	=27	=27	=27	=27	=27	=27
*>Letter>B	*>Letter>B	*>Letter>B	*>Letter>B	*>Letter>B	*>Letter>B	*>Letter>B	*>Letter>B
*>Label>Verse	*>Label>Verse	*>Label>Verse	*>Label>Verse	*>Label>Verse	*>Label>Verse	*>Label>Verse	*>Label>Verse
1IV	A:maj	Took	.	42.7	newline	voice	1A 1cc# 1ee
.	.	all	.	.	.	.	.
.	.	the	.	.	.	.	.
.	.	trees	.	.	.	.	.
.	.	_	.	.	.	.	.
.	.	.	.	.	.	.	.
=28	=28	=28	=28	=28	=28	=28	=28
1IV	A:maj	Put	.	.	.	.	1A 1cc# 1ee
.	.	'em	.	.	.	.	.
.	.	in	.	.	.	.	.
.	.	a	.	.	.	.	.
.	.	tree	.	.	.	.	.
.	.	_	.	.	.	.	.
.	.	mu-	.	.	.	.	.
=29	=29	=29	=29	=29	=29	=29	=29
1I	E:maj	_	.	.	.	voice	1E 1g# 1b
.	.	-se-	(D	.	.	.	.
.	.	-um	d)	.	.	.	.
.	.	_	.	.	.	.	.
.	.	.	.	.	.	.	.
=30	=30	=30	=30	=30	=30	=30	=30
1I	E:maj	.	.	.	.	voice	1E 1g# 1b
.	.	.	.	.	.	.	.
.	.	And	.	.	.	.	.
.	.	they	.	.	.	.	.
=31	=31	=31	=31	=31	=31	=31	=31
1IV	A:maj	charged	.	.	.	voice	1A 1cc# 1ee
.	.	_	.	.	.	.	.
.	.	all	.	.	.	.	.
.	.	the	.	.	.	.	.
.	.	peo-	.	.	.	.	.
.	.	-ple	.	.	.	.	.
.	.	.	.	.	.	.	.
.	.	a	.	.	.	.	.
=32	=32	=32	=32	=32	=32	=32	=32
1V	B:maj	dol-	.	.	.	voice	1B 1dd# 1ff#
.	.	-lar	.	.	.	.	.
.	.	and	.	.	.	.	.
.	.	a	.	.	.	.	.
.	.	half	.	.	.	.	.
.	.	just	.	.	.	.	.
=33	=33	=33	=33	=33	=33	=33	=33
1I	E:maj	_	.	.	.	voice	1E 1g# 1b
.	.	to	.	.	.	.	.
.	.	see	(D	.	.	.	.
.	.	_	.	.	.	.	.
.	.	'em	d)	.	.	.	.
=34	=34	=34	=34	=34	=34	=34	=34
1I	E:maj	_	.	.	.	voice	1E 1g# 1b
.	.	.	.	.	.	.	.
.	.	.	.	.	.	.	.
=35	=35	=35	=35	=35	=35	=35	=35
*>Letter>C	*>Letter>C	*>Letter>C	*>Letter>C	*>Letter>C	*>Letter>C	*>Letter>C	*>Letter>C
*>Label>Chorus	*>Label>Chorus	*>Label>Chorus	*>Label>Chorus	*>Label>Chorus	*>Label>Chorus	*>Label>Chorus	*>Label>Chorus
1I	E:maj	.	.	54.405	newline	voice	1E 1g# 1b
.	.	Don't	B	.	.	.	.
.	.	it	.	.	.	.	.
.	.	al-	.	.	.	.	.
.	.	-ways	.	.	.	.	.
=36	=36	=36	=36	=36	=36	=36	=36
1I7	E:maj7	.	.	.	.	voice	1E 1g# 1b 1dd#
.	.	seem	.	.	.	.	.
.	.	to	.	.	.	.	.
.	.	go	B	.	.	.	.
.	.	_	.	.	.	.	.
=37	=37	=37	=37	=37	=37	=37	=37
1I	E:maj	.	.	.	.	voice	1E 1g# 1b
.	.	You	.	.	.	.	.
.	.	don't	.	.	.	.	.
.	.	know	.	.	.	.	.
.	.	what	.	.	.	.	.
.	.	you've	.	.	.	.	.
.	.	got	C	.	.	.	.
=38	=38	=38	=38	=38	=38	=38	=38
1I	E:maj	_	.	.	.	voice	1E 1g# 1b
.	.	till	.	.	.	.	.
.	.	it's	.	.	.	.	.
.	.	gone	C	.	.	.	.
.	.	_	.	.	.	.	.
.	.	.	.	.	.	.	.
.	.	They	.	.	.	.	.
=39	=39	=39	=39	=39	=39	=39	=39
1IV	A:maj	paved	.	.	.	voice	1A 1cc# 1ee
.	.	par-	.	.	.	.	.
.	.	-a-	.	.	.	.	.
.	.	-dise	.	.	.	.	.
.	.	and	.	.	.	.	.
.	.	they	.	.	.	.	.
=40	=40	=40	=40	=40	=40	=40	=40
1V	B:maj	put	.	.	.	voice	1B 1dd# 1ff#
.	.	up	.	.	.	.	.
.	.	a	.	.	.	.	.
.	.	park-	.	.	.	.	.
.	.	-ing	.	.	.	.	.
=41	=41	=41	=41	=41	=41	=41	=41
1I	E:maj	_	.	.	.	voice	1E 1g# 1b
.	.	lot	C	.	.	.	.
=42	=42	=42	=42	=42	=42	=42	=42
1I	E:maj	_	.	.	.	voice	1E 1g# 1b
=43	=43	=43	=43	=43	=43	=43	=43
1I	E:maj	_	.	.	.	keys	1E 1g# 1b
.	.	.	.	.	.	.	.
.	.	.	.	.	.	.	.
=44	=44	=44	=44	=44	=44	=44	=44
1Im7	E:7	.	.	.	.	keys	1E 1g# 1b 1dd#
=45	=45	=45	=45	=45	=45	=45	=45
*>Letter>B	*>Letter>B	*>Letter>B	*>Letter>B	*>Letter>B	*>Letter>B	*>Letter>B	*>Letter>B
*>Label>Verse	*>Label>Verse	*>Label>Verse	*>Label>Verse	*>Label>Verse	*>Label>Verse	*>Label>Verse	*>Label>Verse
1IV	A:maj	Hey	.	68.94	newline	voice	1A 1cc# 1ee
.	.	farm-	.	.	.	.	.
.	.	-er	.	.	.	.	.
.	.	farm-	.	.	.	.	.
.	.	-er	.	.	.	.	.
.	.	.	.	.	.	.	.
=46	=46	=46	=46	=46	=46	=46	=46
1IV	A:maj	put	.	.	.	.	1A 1cc# 1ee
.	.	a-	.	.	.	.	.
.	.	-way	.	.	.	.	.
.	.	that	.	.	.	.	.
.	.	D.	D	.	.	.	.
.	.	D.	D	.	.	.	.
.	.	T.	D	.	.	.	.
=47	=47	=47	=47	=47	=47	=47	=47
1I	E:maj	_	.	.	.	voice	1E 1g# 1b
.	.	now	.	.	.	.	.
.	.	.	.	.	.	.	.
.	.	.	.	.	.	.	.
=48	=48	=48	=48	=48	=48	=48	=48
1I	E:maj	.	.	.	.	voice	1E 1g# 1b
.	.	.	.	.	.	.	.
.	.	Give	.	.	.	.	.
.	.	me	.	.	.	.	.
=49	=49	=49	=49	=49	=49	=49	=49
1IV	A:maj	spots	.	.	.	voice	1A 1cc# 1ee
.	.	_	.	.	.	.	.
.	.	on	.	.	.	.	.
.	.	my	.	.	.	.	.
.	.	appl-	.	.	.	.	.
.	.	-es	.	.	.	.	.
.	.	.	.	.	.	.	.
.	.	but	.	.	.	.	.
=50	=50	=50	=50	=50	=50	=50	=50
1V	B:maj	leave	.	.	.	voice	1B 1dd# 1ff#
.	.	me	.	.	.	.	.
.	.	the	.	.	.	.	.
.	.	birds	.	.	.	.	.
.	.	_	.	.	.	.	.
=51	=51	=51	=51	=51	=51	=51	=51
1I	E:maj	_	.	.	.	voice	1E 1g# 1b
.	.	and	.	.	.	.	.
.	.	the	.	.	.	.	.
.	.	bees	D	.	.	.	.
.	.	_	.	.	.	.	.
.	.	.	.	.	.	.	.
=52	=52	=52	=52	=52	=52	=52	=52
1I	E:maj	.	.	.	.	voice	1E 1g# 1b
.	.	Please	D	.	.	.	.
.	.	_	.	.	.	.	.
.	.	_	.	.	.	.	.
.	.	_	.	.	.	.	.
.	.	Don't	B	.	.	.	.
=53	=53	=53	=53	=53	=53	=53	=53
*>Letter>C	*>Letter>C	*>Letter>C	*>Letter>C	*>Letter>C	*>Letter>C	*>Letter>C	*>Letter>C
*>Label>Chorus	*>Label>Chorus	*>Label>Chorus	*>Label>Chorus	*>Label>Chorus	*>Label>Chorus	*>Label>Chorus	*>Label>Chorus
1I	E:maj	_	.	80.64	newline	voice	1E 1g# 1b
.	.	it	.	.	.	.	.
.	.	al-	.	.	.	.	.
.	.	-ways	.	.	.	.	.
.	.	.	.	.	.	.	.
=54	=54	=54	=54	=54	=54	=54	=54
1I7	E:maj7	.	.	.	.	voice	1E 1g# 1b 1dd#
.	.	seem	.	.	.	.	.
.	.	to	.	.	.	.	.
.	.	go	B	.	.	.	.
.	.	_	.	.	.	.	.
=55	=55	=55	=55	=55	=55	=55	=55
1I	E:maj	.	.	.	.	voice	1E 1g# 1b
.	.	You	.	.	.	.	.
.	.	don't	.	.	.	.	.
.	.	know	.	.	.	.	.
.	.	what	.	.	.	.	.
.	.	you've	.	.	.	.	.
.	.	got	C	.	.	.	.
=56	=56	=56	=56	=56	=56	=56	=56
1I	E:maj	_	.	.	.	voice	1E 1g# 1b
.	.	till	.	.	.	.	.
.	.	it's	.	.	.	.	.
.	.	gone	C	.	.	.	.
.	.	_	.	.	.	.	.
.	.	.	.	.	.	.	.
.	.	They	.	.	.	.	.
=57	=57	=57	=57	=57	=57	=57	=57
1IV	A:maj	paved	.	.	.	voice	1A 1cc# 1ee
.	.	par-	.	.	.	.	.
.	.	-a-	.	.	.	.	.
.	.	-dise	.	.	.	.	.
.	.	and	.	.	.	.	.
.	.	they	.	.	.	.	.
=58	=58	=58	=58	=58	=58	=58	=58
1V	B:maj	.	.	.	.	voice	1B 1dd# 1ff#
.	.	put	.	.	.	.	.
.	.	up	.	.	.	.	.
.	.	a	.	.	.	.	.
.	.	park-	.	.	.	.	.
.	.	-ing	.	.	.	.	.
.	.	lot	C	.	.	.	.
=59	=59	=59	=59	=59	=59	=59	=59
1I	E:maj	_	.	.	.	voice	1E 1g# 1b
=60	=60	=60	=60	=60	=60	=60	=60
1I	E:maj	_	.	.	.	voice	1E 1g# 1b
=61	=61	=61	=61	=61	=61	=61	=61
1I	E:maj	_	.	.	.	keys	1E 1g# 1b
.	.	.	.	.	.	.	.
.	.	.	.	.	.	.	.
=62	=62	=62	=62	=62	=62	=62	=62
1Im7	E:7	.	.	.	.	keys	1E 1g# 1b 1dd#
=63	=63	=63	=63	=63	=63	=63	=63
*>Letter>B	*>Letter>B	*>Letter>B	*>Letter>B	*>Letter>B	*>Letter>B	*>Letter>B	*>Letter>B
*>Label>Solo	*>Label>Solo	*>Label>Solo	*>Label>Solo	*>Label>Solo	*>Label>Solo	*>Label>Solo	*>Label>Solo
1IV	A:maj	.	.	95.045	newline	voice	1A 1cc# 1ee
=64	=64	=64	=64	=64	=64	=64	=64
1IV	A:maj	.	.	.	.	.	1A 1cc# 1ee
=65	=65	=65	=65	=65	=65	=65	=65
1I	E:maj	.	.	.	.	voice	1E 1g# 1b
=66	=66	=66	=66	=66	=66	=66	=66
1I	E:maj	.	.	.	.	voice	1E 1g# 1b
=67	=67	=67	=67	=67	=67	=67	=67
1IV	A:maj	.	.	.	.	voice	1A 1cc# 1ee
=68	=68	=68	=68	=68	=68	=68	=68
1V	B:maj	.	.	.	.	voice	1B 1dd# 1ff#
=69	=69	=69	=69	=69	=69	=69	=69
1I	E:maj	.	.	.	.	voice	1E 1g# 1b
=70	=70	=70	=70	=70	=70	=70	=70
1I	E:maj	.	.	.	.	voice	1E 1g# 1b
=71	=71	=71	=71	=71	=71	=71	=71
1I	E:maj	.	.	.	newline	voice	1E 1g# 1b
=72	=72	=72	=72	=72	=72	=72	=72
1I7	E:maj7	.	.	.	.	voice	1E 1g# 1b 1dd#
=73	=73	=73	=73	=73	=73	=73	=73
1I	E:maj	.	.	.	.	voice	1E 1g# 1b
=74	=74	=74	=74	=74	=74	=74	=74
1I	E:maj	.	.	.	.	voice	1E 1g# 1b
=75	=75	=75	=75	=75	=75	=75	=75
1IV	A:maj	.	.	.	.	voice	1A 1cc# 1ee
=76	=76	=76	=76	=76	=76	=76	=76
1V	B:maj	.	.	.	.	voice	1B 1dd# 1ff#
=77	=77	=77	=77	=77	=77	=77	=77
1I	E:maj	.	.	.	.	voice	1E 1g# 1b
=78	=78	=78	=78	=78	=78	=78	=78
1I	E:maj	.	.	.	.	voice	1E 1g# 1b
=79	=79	=79	=79	=79	=79	=79	=79
1I	E:maj	.	.	.	.	keys	1E 1g# 1b
=80	=80	=80	=80	=80	=80	=80	=80
1Im7	E:7	.	.	.	.	keys	1E 1g# 1b 1dd#
=81	=81	=81	=81	=81	=81	=81	=81
*>Letter>B	*>Letter>B	*>Letter>B	*>Letter>B	*>Letter>B	*>Letter>B	*>Letter>B	*>Letter>B
*>Label>Verse	*>Label>Verse	*>Label>Verse	*>Label>Verse	*>Label>Verse	*>Label>Verse	*>Label>Verse	*>Label>Verse
1IV	A:maj	Late	.	121.71	newline	voice	1A 1cc# 1ee
.	.	last	.	.	.	.	.
.	.	night	.	.	.	.	.
.	.	.	.	.	.	.	.
.	.	I	.	.	.	.	.
=82	=82	=82	=82	=82	=82	=82	=82
1IV	A:maj	heard	.	.	.	.	1A 1cc# 1ee
.	.	that	.	.	.	.	.
.	.	screen	.	.	.	.	.
.	.	_	.	.	.	.	.
.	.	door	.	.	.	.	.
.	.	slam	E	.	.	.	.
=83	=83	=83	=83	=83	=83	=83	=83
1I	E:maj	_	.	.	.	voice	1E 1g# 1b
.	.	.	.	.	.	.	.
=84	=84	=84	=84	=84	=84	=84	=84
1I	E:maj	.	.	.	.	voice	1E 1g# 1b
.	.	.	.	.	.	.	.
.	.	And	.	.	.	.	.
.	.	the	.	.	.	.	.
=85	=85	=85	=85	=85	=85	=85	=85
1IV	A:maj	big	.	.	.	voice	1A 1cc# 1ee
.	.	_	.	.	.	.	.
.	.	yell-	.	.	.	.	.
.	.	-ow	.	.	.	.	.
.	.	trac-	.	.	.	.	.
.	.	-tor	.	.	.	.	.
.	.	come	.	.	.	.	.
.	.	and	.	.	.	.	.
=86	=86	=86	=86	=86	=86	=86	=86
1V	B:maj	_	.	.	.	voice	1B 1dd# 1ff#
.	.	pushed	.	.	.	.	.
.	.	a-	.	.	.	.	.
.	.	-round	.	.	.	.	.
.	.	my	.	.	.	.	.
.	.	house	.	.	.	.	.
=87	=87	=87	=87	=87	=87	=87	=87
1I	E:maj	_	.	.	.	voice	1E 1g# 1b
.	.	pushed	.	.	.	.	.
.	.	_	.	.	.	.	.
.	.	a-	.	.	.	.	.
.	.	-round	.	.	.	.	.
.	.	my	.	.	.	.	.
.	.	land	E	.	.	.	.
=88	=88	=88	=88	=88	=88	=88	=88
1I	E:maj	_	.	.	.	voice	1E 1g# 1b
.	.	_	.	.	.	.	.
.	.	I	.	.	.	.	.
.	.	said	.	.	.	.	.
.	.	.	.	.	.	.	.
=89	=89	=89	=89	=89	=89	=89	=89
*>Letter>C	*>Letter>C	*>Letter>C	*>Letter>C	*>Letter>C	*>Letter>C	*>Letter>C	*>Letter>C
*>Label>Chorus	*>Label>Chorus	*>Label>Chorus	*>Label>Chorus	*>Label>Chorus	*>Label>Chorus	*>Label>Chorus	*>Label>Chorus
1I	E:maj	.	.	133.48	newline	voice	1E 1g# 1b
.	.	Don't	B	.	.	.	.
.	.	it	.	.	.	.	.
.	.	al-	.	.	.	.	.
.	.	-ways	.	.	.	.	.
.	.	seem	.	.	.	.	.
.	.	to	.	.	.	.	.
=90	=90	=90	=90	=90	=90	=90	=90
1I7	E:maj7	_	.	.	.	voice	1E 1g# 1b 1dd#
.	.	go	B	.	.	.	.
.	.	_	.	.	.	.	.
.	.	.	.	.	.	.	.
.	.	You	.	.	.	.	.
=91	=91	=91	=91	=91	=91	=91	=91
1I	E:maj	don't	.	.	.	voice	1E 1g# 1b
.	.	know	.	.	.	.	.
.	.	what	.	.	.	.	.
.	.	_	.	.	.	.	.
.	.	you've	.	.	.	.	.
.	.	got	C	.	.	.	.
=92	=92	=92	=92	=92	=92	=92	=92
1I	E:maj	_	.	.	.	voice	1E 1g# 1b
.	.	till	.	.	.	.	.
.	.	it's	.	.	.	.	.
.	.	gone	C	.	.	.	.
.	.	_	.	.	.	.	.
.	.	.	.	.	.	.	.
.	.	They	.	.	.	.	.
=93	=93	=93	=93	=93	=93	=93	=93
1IV	A:maj	paved	.	.	.	voice	1A 1cc# 1ee
.	.	par-	.	.	.	.	.
.	.	-a-	.	.	.	.	.
.	.	-dise	.	.	.	.	.
.	.	and	.	.	.	.	.
.	.	they	.	.	.	.	.
=94	=94	=94	=94	=94	=94	=94	=94
1V	B:maj	put	.	.	.	voice	1B 1dd# 1ff#
.	.	up	.	.	.	.	.
.	.	a	.	.	.	.	.
.	.	park-	.	.	.	.	.
.	.	_	.	.	.	.	.
.	.	-ing	.	.	.	.	.
=95	=95	=95	=95	=95	=95	=95	=95
1I	E:maj	_	.	.	.	voice	1E 1g# 1b
.	.	lot	C	.	.	.	.
.	.	_	.	.	.	.	.
=96	=96	=96	=96	=96	=96	=96	=96
1I	E:maj	_	.	.	.	voice	1E 1g# 1b
=97	=97	=97	=97	=97	=97	=97	=97
1I	E:maj	_	.	.	.	keys	1E 1g# 1b
.	.	.	.	.	.	.	.
.	.	.	.	.	.	.	.
=98	=98	=98	=98	=98	=98	=98	=98
1Im7	E:7	.	.	.	.	keys	1E 1g# 1b 1dd#
=99	=99	=99	=99	=99	=99	=99	=99
*>Letter>B	*>Letter>B	*>Letter>B	*>Letter>B	*>Letter>B	*>Letter>B	*>Letter>B	*>Letter>B
*>Label>Verse	*>Label>Verse	*>Label>Verse	*>Label>Verse	*>Label>Verse	*>Label>Verse	*>Label>Verse	*>Label>Verse
1IV	A:maj	Late	.	148.085	newline	voice	1A 1cc# 1ee
.	.	last	.	.	.	.	.
.	.	night	.	.	.	.	.
.	.	.	.	.	.	.	.
.	.	I	.	.	.	.	.
=100	=100	=100	=100	=100	=100	=100	=100
1IV	A:maj	heard	.	.	.	.	1A 1cc# 1ee
.	.	that	.	.	.	.	.
.	.	screen	.	.	.	.	.
.	.	_	.	.	.	.	.
.	.	door	.	.	.	.	.
.	.	slam	.	.	.	.	.
=101	=101	=101	=101	=101	=101	=101	=101
1I	E:maj	_	.	.	.	voice	1E 1g# 1b
.	.	a-	.	.	.	.	.
.	.	-gain	F	.	.	.	.
.	.	.	.	.	.	.	.
=102	=102	=102	=102	=102	=102	=102	=102
1I	E:maj	.	.	.	.	voice	1E 1g# 1b
.	.	.	.	.	.	.	.
.	.	And	.	.	.	.	.
.	.	the	.	.	.	.	.
=103	=103	=103	=103	=103	=103	=103	=103
1IV	A:maj	big	.	.	.	voice	1A 1cc# 1ee
.	.	_	.	.	.	.	.
.	.	yell-	.	.	.	.	.
.	.	-ow	.	.	.	.	.
.	.	ta-	.	.	.	.	.
.	.	-xi	.	.	.	.	.
.	.	came	.	.	.	.	.
.	.	and	.	.	.	.	.
=104	=104	=104	=104	=104	=104	=104	=104
1V	B:maj	took	.	.	.	voice	1B 1dd# 1ff#
.	.	a-	.	.	.	.	.
.	.	-way	.	.	.	.	.
.	.	my	.	.	.	.	.
.	.	_	.	.	.	.	.
.	.	old	.	.	.	.	.
.	.	man	F	.	.	.	.
=105	=105	=105	=105	=105	=105	=105	=105
1I	E:maj	_	.	.	.	voice	1E 1g# 1b
.	.	_	.	.	.	.	.
.	.	.	.	.	.	.	.
.	.	.	.	.	.	.	.
.	.	a-	.	.	.	.	.
=106	=106	=106	=106	=106	=106	=106	=106
1I	E:maj	-gain	.	.	.	voice	1E 1g# 1b
.	.	.	.	.	.	.	.
=107	=107	=107	=107	=107	=107	=107	=107
*>Letter>C	*>Letter>C	*>Letter>C	*>Letter>C	*>Letter>C	*>Letter>C	*>Letter>C	*>Letter>C
*>Label>Chorus	*>Label>Chorus	*>Label>Chorus	*>Label>Chorus	*>Label>Chorus	*>Label>Chorus	*>Label>Chorus	*>Label>Chorus
1I	E:maj	.	.	159.735	newline	voice	1E 1g# 1b
.	.	Don't	B	.	.	.	.
.	.	it	.	.	.	.	.
.	.	al-	.	.	.	.	.
.	.	-ways	.	.	.	.	.
.	.	seem	.	.	.	.	.
=108	=108	=108	=108	=108	=108	=108	=108
1I7	E:maj7	_	.	.	.	voice	1E 1g# 1b 1dd#
.	.	to	B	.	.	.	.
.	.	go	.	.	.	.	.
.	.	_	.	.	.	.	.
.	.	You	.	.	.	.	.
=109	=109	=109	=109	=109	=109	=109	=109
1I	E:maj	don't	.	.	.	voice	1E 1g# 1b
.	.	know	.	.	.	.	.
.	.	what	.	.	.	.	.
.	.	you've	.	.	.	.	.
.	.	got	C	.	.	.	.
=110	=110	=110	=110	=110	=110	=110	=110
1I	E:maj	_	.	.	.	voice	1E 1g# 1b
.	.	till	.	.	.	.	.
.	.	it's	.	.	.	.	.
.	.	gone	C	.	.	.	.
.	.	_	.	.	.	.	.
.	.	.	.	.	.	.	.
.	.	They	.	.	.	.	.
=111	=111	=111	=111	=111	=111	=111	=111
1IV	A:maj	paved	.	.	.	voice	1A 1cc# 1ee
.	.	par-	.	.	.	.	.
.	.	-a-	.	.	.	.	.
.	.	-dise	.	.	.	.	.
.	.	and	.	.	.	.	.
.	.	they	.	.	.	.	.
=112	=112	=112	=112	=112	=112	=112	=112
1V	B:maj	put	.	.	.	voice	1B 1dd# 1ff#
.	.	up	.	.	.	.	.
.	.	a	.	.	.	.	.
.	.	park-	.	.	.	.	.
.	.	_	.	.	.	.	.
.	.	-ing	.	.	.	.	.
=113	=113	=113	=113	=113	=113	=113	=113
1I	E:maj	_	.	.	.	voice	1E 1g# 1b
.	.	lot	C	.	.	.	.
.	.	_	.	.	.	.	.
=114	=114	=114	=114	=114	=114	=114	=114
1I	E:maj	.	.	.	.	voice	1E 1g# 1b
.	.	.	.	.	.	.	.
.	.	Oh	.	.	.	.	.
.	.	They	.	.	.	.	.
=115	=115	=115	=115	=115	=115	=115	=115
1IV	A:maj	pave	.	.	.	voice	1A 1cc# 1ee
.	.	par-	.	.	.	.	.
.	.	-a-	.	.	.	.	.
.	.	-dise	.	.	.	.	.
.	.	and	.	.	.	.	.
.	.	they	.	.	.	.	.
=116	=116	=116	=116	=116	=116	=116	=116
1V	B:maj	put	.	.	.	voice	1B 1dd# 1ff#
.	.	up	.	.	.	.	.
.	.	those	.	.	.	.	.
.	.	park-	.	.	.	.	.
.	.	_	.	.	.	.	.
.	.	-ing	.	.	.	.	.
=117	=117	=117	=117	=117	=117	=117	=117
1I	E:maj	_	.	.	.	voice	1E 1g# 1b
.	.	lots	C	.	.	.	.
.	.	_	.	.	.	.	.
=118	=118	=118	=118	=118	=118	=118	=118
1I	E:maj	.	.	.	.	voice	1E 1g# 1b
.	.	.	.	.	.	.	.
.	.	They	.	.	.	.	.
=119	=119	=119	=119	=119	=119	=119	=119
1IV	A:maj	paved	.	.	.	voice	1A 1cc# 1ee
.	.	par-	.	.	.	.	.
.	.	-a-	.	.	.	.	.
.	.	-dise	.	.	.	.	.
.	.	and	.	.	.	.	.
.	.	they	.	.	.	.	.
=120	=120	=120	=120	=120	=120	=120	=120
1V	B:maj	.	.	.	.	voice	1B 1dd# 1ff#
.	.	put	.	.	.	.	.
.	.	up	.	.	.	.	.
.	.	a	.	.	.	.	.
.	.	park-	.	.	.	.	.
.	.	-ing	.	.	.	.	.
.	.	_	.	.	.	.	.
=121	=121	=121	=121	=121	=121	=121	=121
1I	E:maj	lot	C	.	.	voice	1E 1g# 1b
.	.	they	.	.	.	.	.
=122	=122	=122	=122	=122	=122	=122	=122
1I7	E:maj7	put	.	.	.	voice	1E 1g# 1b 1dd#
.	.	up	.	.	.	.	.
.	.	a	.	.	.	.	.
.	.	park-	.	.	.	.	.
.	.	_	.	.	.	.	.
.	.	-ing	.	.	.	.	.
.	.	lot	C	.	.	.	.
.	.	They	.	.	.	.	.
=123	=123	=123	=123	=123	=123	=123	=123
1I	E:maj	put	.	.	.	keys	1E 1g# 1b
.	.	up	.	.	.	.	.
.	.	a	.	.	.	.	.
.	.	park-	.	.	.	.	.
.	.	_	.	.	.	.	.
.	.	-ing	.	.	.	.	.
.	.	lot	C	.	.	.	.
=124	=124	=124	=124	=124	=124	=124	=124
1I	E:maj	_	.	.	.	keys	1E 1g# 1b
.	.	.	.	.	.	.	.
*-	*-	*-	*-	*-	*-	*-	*-
!!!BillboardChartDate: 1975/02/22
!!!BillboardPeak: 24
!!!BillboardWeeksOnChart: 16
!!!COC: Joni Mitchell
!!!EMD: I had to redo the chords completely, because they listened to the wrong (non-live) version. However, I didn't have a instrument with me, so we need to double check. -Nat
!!!ENC: Nathaniel Condit-Schultz
!!!EST: Awating manual error checking and editing.
!!!OTL: Big Yellow Taxi
!!!RDF**harte: Chris Harte's syntax, used by MIREX
!!!RDF**harmony: **recip + pitch class of root + harmonic quality
!!!RDF**leadinstrument: original McGill primary instrumentation annotation
!!!RDF**phrase: newline = linebreak in original McGill transcription
!!!RDF**timestamp: McGill audio timestamp in seconds
!!!RDT: 2017/01/12/
!!!SampleActualRank: 41
!!!SampleID#: 0668
!!!SampleTargetRank: 42
